X: 36145
T: Scotch Mary
R: reel
M: 4/4
K: Adorian
B|c~E3 cded|c~E3 G2 AB|c~E3 cded|cABc A3B|
c~E3 cded|c~E3 G2 AB|cBcd eged|cABc A3e||
eaag e=fed|cdef g2 fg|eaag efed|cABc A2 cd|
eaag e=fed|cdef g2 fg|afge fded|cABc A3B||

